packages/blockchain-info-components/src/Images/img/linkedin-white.svg

<?xml version="1.0" encoding="UTF-8"?>
<svg width="22px" height="21px" viewBox="0 0 22 21" version="1.1" xmlns="http://www.w3.org/2000/svg" xmlns:xlink="http://www.w3.org/1999/xlink">
    <!-- Generator: Sketch 50.2 (55047) - http://www.bohemiancoding.com/sketch -->
    <title>Fill 263</title>
    <desc>Created with Sketch.</desc>
    <defs></defs>
    <g id="Page-1" stroke="none" stroke-width="1" fill="white" fill-rule="evenodd">
        <g id="Icons" class="social-icons" transform="translate(-98.000000, -50.000000)">
            <g id="Fill-263" transform="translate(98.000000, 50.000000)">
                <path d="M14.5273,11.5 C13.4223,11.5 12.5273,12.396 12.5273,13.5 L12.5273,20.5 L7.5273,20.5 C7.5273,20.5 7.5863,8.5 7.5273,7.5 L12.5273,7.5 L12.5273,8.985 C12.5273,8.985 14.0753,7.542 16.4663,7.542 C19.4273,7.542 21.5273,9.685 21.5273,13.846 L21.5273,20.5 L16.5273,20.5 L16.5273,13.5 C16.5273,12.396 15.6323,11.5 14.5273,11.5 L14.5273,11.5 Z M3.0173,5.5 L2.9883,5.5 C1.4773,5.5 0.5003,4.318 0.5003,3.019 C0.5003,1.69 1.5073,0.607 3.0473,0.607 C4.5883,0.607 5.5353,1.725 5.5653,3.054 C5.5653,4.354 4.5883,5.5 3.0173,5.5 L3.0173,5.5 Z M5.5273,20.5 L0.5273,20.5 L0.5273,7.5 L5.5273,7.5 L5.5273,20.5 Z"></path>
            </g>
        </g>
    </g>
</svg>

<svg height="21" viewBox="0 0 22 21" width="22" xmlns="http://www.w3.org/2000/svg"><path d="m14.5273 11.5c-1.105 0-2 .896-2 2v7h-5s.059-12 0-13h5v1.485s1.548-1.443 3.939-1.443c2.961 0 5.061 2.143 5.061 6.304v6.654h-5v-7c0-1.104-.895-2-2-2zm-11.51-6h-.029c-1.511 0-2.488-1.182-2.488-2.481 0-1.329 1.007-2.412 2.547-2.412 1.541 0 2.488 1.118 2.518 2.447 0 1.3-.977 2.446-2.548 2.446zm2.51 15h-5v-13h5z" fill="#fff" fill-rule="evenodd"/></svg>
